X: 506
T: Paddy O Flanagan
%R: jig
B: "Preston's Twenty Four Country Dances for the Year 1803", Tho. Preston, ed. p.213 #2
F: http://folkopedia.efdss.org/images/archive/0/02/20121211105513%21Preston_24_1803.PDF
F: http://folkopedia.efdss.org/wiki/File:Preston_24_1803.PDF
Z: 2014 John Chambers <jc:trillian.mit.edu>
M: 6/8
L: 1/8
K: G
%%slurgraces 1
%%graceslurs 1
% - - - - - - - - - - - - - - - - - - - - - - - - -
|:\
{GA}TB2D DED | GcB AGA |\
{GA}TB2D DED | GBA GED |\
{GA} B2D DED | GAB ABc |\
     BdB BcB | ABG FED :|
|:\
GAB AFD | GAB AFD |\
GAB ABc | BdB AFD |\
GAB AFD | GAB AFD |\
BdB BcB | ABG FED :|
|:\
 BDD ADD | BDD ABc |\
TBDD ADD | BAG FED |\
TBDD ADD | BDD ABc |\
 BdB BcB | ABG FED :|
% - - - - - - - - - - - - - - - - - - - - - - - - -
%%begintext align
%% 1st & 2d Cu. set & hands across & back again.
%% lead down the middle up again, Allemande,
%% swing corners.
%%endtext

%%sep 1 1 500
%%sep 1 1 500
